X: 10902
T: Drowsy Maggie
R: reel
M: 4/4
K: Edorian
d2fd cdec|defd faaf|d2fd cdec|BABc dAFA|
d2fd cdec|defd faa2|bgaf gfed|BABc dAFD||

